groups/amino_sidechains/cysteine.svg

<svg height="256" viewBox="0 0 256 256" width="256" xmlns="http://www.w3.org/2000/svg"><path d="m0 0h256v256h-256z" fill="#fff"/><g fill="none" stroke-width="2"><path d="m213.6 130.9-77.7-45" stroke="#000"/><path d="m135.9 85.9-63.7 36.7" stroke="#000"/><path d="m139.8 88.2-3.9-2.3-3.1 1.8" stroke="#000" stroke-miterlimit="10"/><path d="m236.103 92.01c-2.914-1.686-5.161 2.198-2.248 3.884 2.914 1.685.666 5.57-2.247 3.884-2.913-1.685-5.16 2.199-2.247 3.884 2.913 1.686.666 5.57-2.247 3.885-2.914-1.686-5.161 2.198-2.248 3.884 2.914 1.685.666 5.57-2.247 3.884-2.913-1.685-5.161 2.199-2.247 3.884 2.913 1.686.666 5.57-2.248 3.885-2.913-1.686-5.16 2.198-2.247 3.884 2.913 1.685.666 5.57-2.247 3.884-2.913-1.685-5.161 2.199-2.247 3.884 2.913 1.686.666 5.57-2.248 3.885-2.913-1.686-5.16 2.198-2.247 3.884 2.913 1.685.666 5.57-2.247 3.884-2.913-1.685-5.161 2.199-2.247 3.884 2.913 1.686.666 5.57-2.248 3.885-2.913-1.686-5.16 2.198-2.247 3.884 2.913 1.685.666 5.57-2.247 3.884-2.913-1.685-5.161 2.199-2.247 3.884 2.913 1.686.666 5.57-2.248 3.885" stroke="#7f7f7f"/></g><text font-family="sans-serif" font-size="40" x="19.5" y="150.7">H</text><text font-family="sans-serif" font-size="40" x="47.1" y="150.7">S</text></svg>

<?xml version='1.0' encoding='iso-8859-1'?>
<svg version='1.1' baseProfile='full'
              xmlns='http://www.w3.org/2000/svg'
                      xmlns:rdkit='http://www.rdkit.org/xml'
                      xmlns:xlink='http://www.w3.org/1999/xlink'
                  xml:space='preserve'
width='256px' height='256px' viewBox='0 0 256 256'>
<!-- END OF HEADER -->
<rect style='opacity:1.0;fill:#FFFFFF;stroke:none' width='256.0' height='256.0' x='0.0' y='0.0'> </rect>
<path class='bond-0 atom-0 atom-1' d='M 213.6,130.9 L 135.9,85.9' style='fill:none;fill-rule:evenodd;stroke:#000000;stroke-width:2.0px;stroke-linecap:butt;stroke-linejoin:miter;stroke-opacity:1' />
<path class='bond-1 atom-1 atom-2' d='M 135.9,85.9 L 72.2,122.6' style='fill:none;fill-rule:evenodd;stroke:#000000;stroke-width:2.0px;stroke-linecap:butt;stroke-linejoin:miter;stroke-opacity:1' />
<path d='M 139.8,88.2 L 135.9,85.9 L 132.8,87.7' style='fill:none;stroke:#000000;stroke-width:2.0px;stroke-linecap:butt;stroke-linejoin:miter;stroke-miterlimit:10;stroke-opacity:1;' />
<path class='atom-1' d='M236.103,92.0096 C233.189,90.3242 230.942,94.2084 233.855,95.8939 C236.769,97.5794 234.521,101.464 231.608,99.7781 C228.695,98.0926 226.448,101.977 229.361,103.662 C232.274,105.348 230.027,109.232 227.114,107.547 C224.2,105.861 221.953,109.745 224.866,111.431 C227.78,113.116 225.532,117.001 222.619,115.315 C219.706,113.63 217.458,117.514 220.372,119.199 C223.285,120.885 221.038,124.769 218.124,123.084 C215.211,121.398 212.964,125.282 215.877,126.968 C218.79,128.653 216.543,132.538 213.63,130.852 C210.717,129.167 208.469,133.051 211.383,134.736 C214.296,136.422 212.049,140.306 209.135,138.621 C206.222,136.935 203.975,140.819 206.888,142.505 C209.801,144.19 207.554,148.075 204.641,146.389 C201.728,144.704 199.48,148.588 202.394,150.273 C205.307,151.959 203.06,155.843 200.146,154.158 C197.233,152.472 194.986,156.356 197.899,158.042 C200.812,159.727 198.565,163.612 195.652,161.926 C192.739,160.241 190.491,164.125 193.405,165.81 C196.318,167.496 194.071,171.38 191.157,169.695' style='fill:none;stroke:#7F7F7F;stroke-width:2.0px;stroke-linecap:butt;stroke-linejoin:miter;stroke-opacity:1' />
<text x='19.5' y='150.7' class='atom-2' style='font-size:40px;font-style:normal;font-weight:normal;fill-opacity:1;stroke:none;font-family:sans-serif;text-anchor:start;fill:#000000' >H</text>
<text x='47.1' y='150.7' class='atom-2' style='font-size:40px;font-style:normal;font-weight:normal;fill-opacity:1;stroke:none;font-family:sans-serif;text-anchor:start;fill:#000000' >S</text>
</svg>
